;FLAVOR:RepRap
;TIME:1845
;Filament used: 0.352188m
;Layer height: 0.1
;Generated with Cura_SteamEngine 3.6.0
T0
M190 S60
M104 S198
M109 S198
M82 ;absolute extrusion mode
G21 ;metric values
G90 ;absolute positioning
M82 ;set extruder to absolute mode
M107 ;start with the fan off
G28 X0 Y0 ;move X/Y to min endstops
G28 Z0 ;move Z to min endstops
G1 Z15.0 F{travel_speed} ;move the platform down 15mm
G92 E0 ;zero the extruded length
G1 F200 E3 ;extrude 3mm of feed stock
G92 E0 ;zero the extruded length again
G1 F{travel_speed}
M117 Printing...
G5
M83 ;relative extrusion mode
G1 F2100 E-8
;LAYER_COUNT:136
;LAYER:0
M107
G0 F1500 X144.398 Y41.178 Z0.1
;TYPE:SKIRT
G1 F2100 E8
G1 F900 X144.665 Y40.399 E0.01438
G1 X144.948 Y39.752 E0.01233
G1 X145.237 Y39.19 E0.01103
G1 X145.596 Y38.669 E0.01105
G1 X146.162 Y38.059 E0.01453
G1 X146.431 Y37.814 E0.00635
G1 X146.925 Y37.419 E0.01104
G1 X147.464 Y37.089 E0.01104
G1 X148.234 Y36.762 E0.01461
G1 X148.902 Y36.542 E0.01228
G1 X149.514 Y36.383 E0.01104
G1 X150.141 Y36.302 E0.01104
G1 X150.773 Y36.3 E0.01104
G1 X151.649 Y36.433 E0.01547
G1 X152.335 Y36.6 E0.01233
G1 X152.938 Y36.788 E0.01103
G1 X153.513 Y37.051 E0.01104
G1 X154.203 Y37.497 E0.01435
G1 X154.486 Y37.715 E0.00624
G1 X154.519 Y37.744 E0.00077
G1 X154.925 Y37.419 E0.00908
G1 X155.464 Y37.089 E0.01104
G1 X156.234 Y36.762 E0.01461
G1 X156.902 Y36.542 E0.01228
G1 X157.514 Y36.383 E0.01104
G1 X158.141 Y36.302 E0.01104
G1 X158.773 Y36.3 E0.01104
G1 X159.649 Y36.433 E0.01547
G1 X160.335 Y36.6 E0.01233
G1 X160.938 Y36.788 E0.01103
G1 X161.513 Y37.051 E0.01104
G1 X162.203 Y37.497 E0.01435
G1 X162.486 Y37.715 E0.00624
G1 X162.962 Y38.132 E0.01105
G1 X163.381 Y38.605 E0.01103
G1 X163.83 Y39.292 E0.01433
G1 X164.168 Y39.915 E0.01238
G1 X164.434 Y40.488 E0.01103
G1 X164.625 Y41.091 E0.01104
G1 X164.738 Y41.713 E0.01104
G1 X164.764 Y42.603 E0.01555
G1 X164.721 Y43.308 E0.01233
G1 X164.642 Y43.936 E0.01105
G1 X164.486 Y44.548 E0.01103
G1 X164.426 Y44.699 E0.00284
G1 X164.902 Y44.542 E0.00875
G1 X165.514 Y44.383 E0.01104
G1 X166.141 Y44.302 E0.01104
G1 X166.773 Y44.3 E0.01104
G1 X167.649 Y44.433 E0.01547
G1 X168.335 Y44.6 E0.01233
G1 X168.938 Y44.788 E0.01103
G1 X169.513 Y45.051 E0.01104
G1 X170.203 Y45.497 E0.01435
G1 X170.486 Y45.715 E0.00624
G1 X170.962 Y46.132 E0.01105
G1 X171.381 Y46.605 E0.01103
G1 X171.83 Y47.292 E0.01433
G1 X172.168 Y47.915 E0.01238
G1 X172.434 Y48.488 E0.01103
G1 X172.625 Y49.091 E0.01104
G1 X172.738 Y49.713 E0.01104
G1 X172.764 Y50.603 E0.01555
G1 X172.721 Y51.308 E0.01233
G1 X172.642 Y51.936 E0.01105
G1 X172.486 Y52.548 E0.01103
G1 X172.412 Y52.734 E0.0035
G1 X172.572 Y52.655 E0.00312
G1 X173.126 Y52.46 E0.01026
G1 X174.2 Y52.151 E0.01951
G1 X174.817 Y52.015 E0.01103
G1 X175.578 Y51.956 E0.01333
G1 X176.701 Y51.955 E0.01961
G1 X177.331 Y51.994 E0.01102
G1 X178.08 Y52.148 E0.01335
G1 X179.157 Y52.456 E0.01956
G1 X179.752 Y52.668 E0.01103
G1 X180.423 Y53.018 E0.01321
G1 X181.381 Y53.614 E0.0197
G1 X181.896 Y53.981 E0.01104
G1 X182.329 Y54.378 E0.01026
G1 X182.913 Y54.98 E0.01465
G1 X183.323 Y55.46 E0.01102
G1 X183.556 Y55.798 E0.00717
G1 X184.004 Y56.51 E0.01469
G1 X184.306 Y57.065 E0.01103
G1 X184.467 Y57.452 E0.00732
G1 X184.758 Y58.246 E0.01477
G1 X184.937 Y58.853 E0.01105
G1 X185.035 Y59.439 E0.01037
G1 X185.156 Y60.579 E0.02002
G1 X185.183 Y61.211 E0.01105
G1 X185.107 Y61.981 E0.01351
G1 X184.913 Y63.074 E0.01938
G1 X184.763 Y63.688 E0.01104
G1 X184.487 Y64.386 E0.01311
G1 X183.995 Y65.398 E0.01965
G1 X183.683 Y65.948 E0.01104
G1 X183.324 Y66.431 E0.01051
G1 X182.773 Y67.086 E0.01495
G1 X182.337 Y67.543 E0.01103
G1 X182.018 Y67.812 E0.00729
G1 X181.35 Y68.332 E0.01478
G1 X180.828 Y68.688 E0.01103
G1 X180.465 Y68.884 E0.0072
G1 X179.714 Y69.249 E0.01458
G1 X179.129 Y69.489 E0.01104
G1 X178.561 Y69.644 E0.01028
G1 X177.458 Y69.877 E0.01969
G1 X176.833 Y69.968 E0.01103
G1 X176.253 Y69.982 E0.01013
G1 X175.41 Y69.953 E0.01473
G1 X174.781 Y69.891 E0.01104
G1 X174.198 Y69.761 E0.01043
G1 X173.122 Y69.451 E0.01955
G1 X172.527 Y69.238 E0.01104
G1 X171.861 Y68.889 E0.01313
G1 X170.908 Y68.295 E0.01961
G1 X170.394 Y67.928 E0.01103
G1 X170.026 Y67.589 E0.00874
G1 X169.784 Y67.916 E0.0071
G1 X169.053 Y68.789 E0.01988
G1 X168.617 Y69.247 E0.01104
G1 X168.294 Y69.521 E0.0074
G1 X167.853 Y69.865 E0.00977
G1 X167.132 Y70.334 E0.01502
G1 X166.392 Y70.729 E0.01465
G1 X165.817 Y70.991 E0.01103
G1 X165.415 Y71.125 E0.0074
G1 X164.595 Y71.36 E0.01489
G1 X163.754 Y71.524 E0.01496
G1 X163.207 Y71.583 E0.00961
G1 X162.326 Y71.6 E0.01539
G1 X161.474 Y71.541 E0.01491
G1 X160.847 Y71.458 E0.01104
G1 X160.442 Y71.36 E0.00728
G1 X159.622 Y71.125 E0.01489
G1 X159.026 Y70.912 E0.01105
G1 X158.645 Y70.729 E0.00738
G1 X157.905 Y70.334 E0.01465
G1 X157.367 Y70.002 E0.01104
G1 X157.041 Y69.75 E0.00719
G1 X156.388 Y69.201 E0.0149
G1 X155.766 Y68.577 E0.01538
G1 X155.409 Y68.149 E0.00973
G1 X155.036 Y67.639 E0.01103
G1 X154.835 Y67.295 E0.00696
G1 X154.308 Y66.305 E0.01958
G1 X154.047 Y65.73 E0.01103
G1 X153.83 Y64.989 E0.01348
G1 X153.597 Y63.886 E0.01969
G1 X153.506 Y63.261 E0.01103
G1 X153.492 Y62.671 E0.01031
G1 X153.523 Y61.821 E0.01485
G1 X153.586 Y61.192 E0.01104
G1 X153.716 Y60.618 E0.01028
G1 X154.024 Y59.55 E0.01941
G1 X154.088 Y59.37 E0.00334
G1 X153.706 Y59.516 E0.00714
G1 X153.092 Y59.665 E0.01103
G1 X152.169 Y59.742 E0.01617
G1 X148.692 Y59.707 E0.06072
G1 X148.061 Y59.66 E0.01105
G1 X147.442 Y59.535 E0.01103
G1 X146.843 Y59.332 E0.01104
G1 X146.274 Y59.056 E0.01104
G1 X145.745 Y58.71 E0.01104
G1 X145.264 Y58.3 E0.01104
G1 X144.839 Y57.832 E0.01104
G1 X144.594 Y57.499 E0.00722
G1 X144.487 Y57.34 E0.00335
G1 X144.168 Y56.794 E0.01104
G1 X143.92 Y56.212 E0.01105
G1 X143.748 Y55.604 E0.01103
G1 X143.654 Y54.979 E0.01104
G1 X143.635 Y54.518 E0.00806
G1 X143.659 Y50.507 E0.07004
G1 X143.703 Y49.876 E0.01105
G1 X143.826 Y49.256 E0.01104
G1 X144.026 Y48.657 E0.01103
G1 X144.3 Y48.087 E0.01104
G1 X144.644 Y47.557 E0.01103
G1 X145.052 Y47.074 E0.01104
G1 X145.512 Y46.652 E0.0109
G1 X145.653 Y46.538 E0.00317
G1 X145.381 Y46.182 E0.00782
G1 X144.984 Y45.467 E0.01428
G1 X144.693 Y44.824 E0.01232
G1 X144.469 Y44.232 E0.01105
G1 X144.322 Y43.618 E0.01102
G1 X144.248 Y42.79 E0.01452
G1 X144.246 Y42.431 E0.00627
G1 X144.283 Y41.8 E0.01104
G1 X144.398 Y41.178 E0.01105
G0 F1500 X144.799 Y41.228
G1 F900 X145.032 Y40.56 E0.01235
G1 X145.315 Y39.913 E0.01233
G1 X145.594 Y39.374 E0.0106
G1 X145.941 Y38.877 E0.01058
G1 X146.432 Y38.355 E0.01251
G1 X146.701 Y38.11 E0.00635
G1 X147.175 Y37.732 E0.01059
G1 X147.694 Y37.42 E0.01057
G1 X148.359 Y37.142 E0.01259
G1 X149.027 Y36.922 E0.01228
G1 X149.614 Y36.771 E0.01058
G1 X150.216 Y36.698 E0.01059
G1 X150.822 Y36.705 E0.01058
G1 X151.554 Y36.822 E0.01294
G1 X152.24 Y36.989 E0.01233
G1 X152.818 Y37.17 E0.01058
G1 X153.368 Y37.427 E0.0106
G1 X153.959 Y37.814 E0.01234
G1 X154.242 Y38.032 E0.00624
G1 X154.519 Y38.276 E0.00645
G1 X154.701 Y38.11 E0.0043
G1 X155.175 Y37.732 E0.01059
G1 X155.694 Y37.42 E0.01057
G1 X156.359 Y37.142 E0.01259
G1 X157.027 Y36.922 E0.01228
G1 X157.614 Y36.771 E0.01058
G1 X158.216 Y36.698 E0.01059
G1 X158.822 Y36.705 E0.01058
G1 X159.554 Y36.822 E0.01294
G1 X160.24 Y36.989 E0.01233
G1 X160.818 Y37.17 E0.01058
G1 X161.368 Y37.427 E0.0106
G1 X161.959 Y37.814 E0.01234
G1 X162.242 Y38.032 E0.00624
G1 X162.697 Y38.433 E0.01059
G1 X163.095 Y38.89 E0.01058
G1 X163.478 Y39.482 E0.01231
G1 X163.816 Y40.105 E0.01238
G1 X164.07 Y40.656 E0.01059
G1 X164.248 Y41.236 E0.01059
G1 X164.349 Y41.833 E0.01057
G1 X164.364 Y42.579 E0.01303
G1 X164.321 Y43.284 E0.01233
G1 X164.245 Y43.885 E0.01058
G1 X164.09 Y44.472 E0.0106
G1 X163.859 Y45.032 E0.01058
G1 X163.589 Y45.483 E0.00918
G1 X163.694 Y45.42 E0.00214
G1 X164.359 Y45.142 E0.01259
G1 X165.027 Y44.922 E0.01228
G1 X165.614 Y44.771 E0.01058
G1 X166.216 Y44.698 E0.01059
G1 X166.822 Y44.705 E0.01058
G1 X167.554 Y44.822 E0.01294
G1 X168.24 Y44.989 E0.01233
G1 X168.818 Y45.17 E0.01058
G1 X169.368 Y45.427 E0.0106
G1 X169.959 Y45.814 E0.01234
G1 X170.242 Y46.032 E0.00624
G1 X170.697 Y46.433 E0.01059
G1 X171.095 Y46.89 E0.01058
G1 X171.478 Y47.482 E0.01231
G1 X171.816 Y48.105 E0.01238
G1 X172.07 Y48.656 E0.01059
G1 X172.248 Y49.236 E0.01059
G1 X172.349 Y49.833 E0.01057
G1 X172.364 Y50.579 E0.01303
G1 X172.321 Y51.284 E0.01233
G1 X172.245 Y51.885 E0.01058
G1 X172.09 Y52.472 E0.0106
G1 X171.859 Y53.032 E0.01058
G1 X171.468 Y53.685 E0.01329
G1 X171.437 Y53.729 E0.00094
G1 X171.462 Y53.712 E0.00053
G1 X172.206 Y53.282 E0.01501
G1 X172.75 Y53.014 E0.01059
G1 X173.236 Y52.844 E0.00899
G1 X174.31 Y52.535 E0.01951
G1 X174.903 Y52.406 E0.0106
G1 X175.578 Y52.356 E0.01182
G1 X176.701 Y52.355 E0.01961
G1 X177.306 Y52.394 E0.01059
G1 X177.97 Y52.532 E0.01184
G1 X179.047 Y52.84 E0.01956
G1 X179.617 Y53.045 E0.01058
G1 X180.212 Y53.357 E0.01173
G1 X181.17 Y53.953 E0.0197
G1 X181.663 Y54.307 E0.0106
G1 X182.042 Y54.656 E0.009
G1 X182.626 Y55.258 E0.01465
G1 X183.018 Y55.72 E0.01058
G1 X183.217 Y56.011 E0.00616
G1 X183.665 Y56.723 E0.01469
G1 X183.954 Y57.257 E0.0106
G1 X184.091 Y57.59 E0.00629
G1 X184.382 Y58.384 E0.01477
G1 X184.553 Y58.966 E0.01059
G1 X184.637 Y59.481 E0.00911
G1 X184.758 Y60.621 E0.02002
G1 X184.782 Y61.227 E0.01059
G1 X184.713 Y61.911 E0.012
G1 X184.519 Y63.004 E0.01938
G1 X184.374 Y63.593 E0.01059
G1 X184.127 Y64.211 E0.01162
G1 X183.635 Y65.223 E0.01965
G1 X183.335 Y65.75 E0.01059
G1 X183.018 Y66.173 E0.00923
G1 X182.467 Y66.828 E0.01495
G1 X182.047 Y67.265 E0.01058
G1 X181.773 Y67.497 E0.00627
G1 X181.105 Y68.017 E0.01478
G1 X180.603 Y68.357 E0.01059
G1 X180.29 Y68.524 E0.00619
G1 X179.539 Y68.889 E0.01458
G1 X178.977 Y69.118 E0.0106
G1 X178.479 Y69.253 E0.00901
G1 X177.376 Y69.486 E0.01969
G1 X176.776 Y69.572 E0.01058
G1 X176.267 Y69.582 E0.00889
G1 X175.424 Y69.553 E0.01473
G1 X174.821 Y69.493 E0.01058
G1 X174.309 Y69.376 E0.00917
G1 X173.233 Y69.066 E0.01955
G1 X172.662 Y68.86 E0.0106
G1 X172.073 Y68.55 E0.01162
G1 X171.12 Y67.956 E0.01961
G1 X170.628 Y67.602 E0.01058
G1 X170.242 Y67.245 E0.00918
G1 X169.955 Y66.948 E0.00721
G1 X169.793 Y67.234 E0.00574
G1 X169.477 Y67.659 E0.00925
G1 X168.746 Y68.532 E0.01988
G1 X168.327 Y68.97 E0.01058
G1 X168.048 Y69.206 E0.00638
G1 X167.607 Y69.55 E0.00977
G1 X166.944 Y69.981 E0.01381
G1 X166.204 Y70.376 E0.01465
G1 X165.652 Y70.626 E0.01058
G1 X165.305 Y70.74 E0.00638
G1 X164.485 Y70.975 E0.01489
G1 X163.711 Y71.126 E0.01377
G1 X163.164 Y71.185 E0.00961
G1 X162.353 Y71.201 E0.01416
G1 X161.501 Y71.142 E0.01491
G1 X160.9 Y71.06 E0.01059
G1 X160.552 Y70.975 E0.00626
G1 X159.732 Y70.74 E0.01489
G1 X159.161 Y70.535 E0.01059
G1 X158.833 Y70.376 E0.00636
G1 X158.093 Y69.981 E0.01465
G1 X157.578 Y69.661 E0.01059
G1 X157.299 Y69.444 E0.00617
G1 X156.646 Y68.895 E0.0149
G1 X156.074 Y68.32 E0.01416
G1 X155.717 Y67.892 E0.00973
G1 X155.36 Y67.402 E0.01059
G1 X155.188 Y67.108 E0.00595
G1 X154.661 Y66.118 E0.01958
G1 X154.412 Y65.565 E0.01059
G1 X154.221 Y64.907 E0.01196
G1 X153.988 Y63.804 E0.01969
G1 X153.902 Y63.204 E0.01058
G1 X153.892 Y62.685 E0.00906
G1 X153.923 Y61.835 E0.01485
G1 X153.985 Y61.232 E0.01058
G1 X154.1 Y60.728 E0.00903
G1 X154.408 Y59.66 E0.01941
G1 X154.614 Y59.09 E0.01058
G1 X154.922 Y58.505 E0.01154
G1 X154.981 Y58.41 E0.00195
G1 X154.622 Y58.664 E0.00768
G1 X154.085 Y58.946 E0.01059
G1 X153.516 Y59.155 E0.01058
G1 X152.925 Y59.288 E0.01058
G1 X152.173 Y59.342 E0.01316
G1 X148.696 Y59.307 E0.06072
G1 X148.091 Y59.261 E0.01059
G1 X147.498 Y59.136 E0.01058
G1 X146.926 Y58.933 E0.0106
G1 X146.386 Y58.658 E0.01058
G1 X145.887 Y58.314 E0.01058
G1 X145.437 Y57.907 E0.01059
G1 X144.926 Y57.275 E0.01419
G1 X144.819 Y57.116 E0.00335
G1 X144.514 Y56.592 E0.01059
G1 X144.281 Y56.032 E0.01059
G1 X144.124 Y55.447 E0.01058
G1 X144.045 Y54.846 E0.01058
G1 X144.035 Y54.52 E0.0057
G1 X144.059 Y50.509 E0.07004
G1 X144.103 Y49.905 E0.01057
G1 X144.225 Y49.311 E0.01059
G1 X144.425 Y48.739 E0.01058
G1 X144.698 Y48.197 E0.0106
G1 X145.041 Y47.697 E0.01059
G1 X145.446 Y47.246 E0.01058
G1 X145.763 Y46.963 E0.00742
G1 X145.921 Y46.835 E0.00355
G1 X146.248 Y46.604 E0.00699
G1 X146.05 Y46.403 E0.00493
G1 X145.686 Y45.918 E0.01059
G1 X145.348 Y45.302 E0.01227
G1 X145.057 Y44.659 E0.01232
G1 X144.844 Y44.091 E0.01059
G1 X144.708 Y43.5 E0.01059
G1 X144.648 Y42.788 E0.01248
G1 X144.646 Y42.429 E0.00627
G1 X144.683 Y41.823 E0.0106
G1 X144.799 Y41.228 E0.01059
G0 F1500 X145.199 Y41.281
G1 F900 X145.398 Y40.72 E0.01039
G1 X145.681 Y40.073 E0.01233
G1 X145.949 Y39.559 E0.01012
G1 X146.286 Y39.088 E0.01011
G1 X146.701 Y38.651 E0.01052
G1 X146.97 Y38.406 E0.00635
G1 X147.424 Y38.046 E0.01012
G1 X147.923 Y37.753 E0.0101
G1 X148.484 Y37.522 E0.01059
G1 X149.152 Y37.302 E0.01228
G1 X149.714 Y37.159 E0.01013
G1 X150.289 Y37.095 E0.0101
G1 X150.868 Y37.11 E0.01011
G1 X151.459 Y37.21 E0.01047
G1 X152.145 Y37.377 E0.01233
G1 X152.698 Y37.553 E0.01013
G1 X153.22 Y37.803 E0.01011
G1 X153.715 Y38.131 E0.01037
G1 X153.998 Y38.349 E0.00624
G1 X154.432 Y38.733 E0.01012
G1 X154.523 Y38.839 E0.00244
G1 X154.701 Y38.651 E0.00452
G1 X154.97 Y38.406 E0.00635
G1 X155.424 Y38.046 E0.01012
G1 X155.923 Y37.753 E0.0101
G1 X156.484 Y37.522 E0.01059
G1 X157.152 Y37.302 E0.01228
G1 X157.714 Y37.159 E0.01013
G1 X158.289 Y37.095 E0.0101
G1 X158.868 Y37.11 E0.01011
G1 X159.459 Y37.21 E0.01047
G1 X160.145 Y37.377 E0.01233
G1 X160.698 Y37.553 E0.01013
G1 X161.22 Y37.803 E0.01011
G1 X161.715 Y38.131 E0.01037
G1 X161.998 Y38.349 E0.00624
G1 X162.432 Y38.733 E0.01012
G1 X162.808 Y39.173 E0.01011
G1 X163.127 Y39.673 E0.01036
G1 X163.465 Y40.296 E0.01238
G1 X163.705 Y40.823 E0.01011
G1 X163.871 Y41.378 E0.01012
G1 X163.959 Y41.951 E0.01012
G1 X163.965 Y42.555 E0.01055
G1 X163.922 Y43.26 E0.01233
G1 X163.847 Y43.834 E0.01011
G1 X163.694 Y44.393 E0.01012
G1 X163.465 Y44.925 E0.01011
G1 X163.143 Y45.452 E0.01078
G1 X162.727 Y46.032 E0.01246
G1 X162.358 Y46.478 E0.01011
G1 X162.253 Y46.574 E0.00248
G1 X162.432 Y46.733 E0.00418
G1 X162.523 Y46.839 E0.00244
G1 X162.701 Y46.651 E0.00452
G1 X162.97 Y46.406 E0.00635
G1 X163.424 Y46.046 E0.01012
G1 X163.923 Y45.753 E0.0101
G1 X164.484 Y45.522 E0.01059
G1 X165.152 Y45.302 E0.01228
G1 X165.714 Y45.159 E0.01013
G1 X166.289 Y45.095 E0.0101
G1 X166.868 Y45.11 E0.01011
G1 X167.459 Y45.21 E0.01047
G1 X168.145 Y45.377 E0.01233
G1 X168.698 Y45.553 E0.01013
G1 X169.22 Y45.803 E0.01011
G1 X169.715 Y46.131 E0.01037
G1 X169.998 Y46.349 E0.00624
G1 X170.432 Y46.733 E0.01012
G1 X170.808 Y47.173 E0.01011
G1 X171.127 Y47.673 E0.01036
G1 X171.465 Y48.296 E0.01238
G1 X171.705 Y48.823 E0.01011
G1 X171.871 Y49.378 E0.01012
G1 X171.959 Y49.951 E0.01012
G1 X171.965 Y50.555 E0.01055
G1 X171.922 Y51.26 E0.01233
G1 X171.847 Y51.834 E0.01011
G1 X171.694 Y52.393 E0.01012
G1 X171.465 Y52.925 E0.01011
G1 X171.143 Y53.452 E0.01078
G1 X170.727 Y54.032 E0.01246
G1 X170.358 Y54.478 E0.01011
G1 X169.93 Y54.869 E0.01012
G1 X169.453 Y55.198 E0.01012
G1 X169.176 Y55.349 E0.00551
G1 X168.703 Y55.583 E0.00921
G1 X168.168 Y55.803 E0.0101
G1 X167.607 Y55.948 E0.01012
G1 X167.395 Y55.979 E0.00374
G1 X167.995 Y56.446 E0.01328
G1 X168.426 Y56.832 E0.0101
G1 X168.72 Y57.169 E0.00781
G1 X168.791 Y57.259 E0.002
G1 X168.942 Y56.985 E0.00546
G1 X169.384 Y56.27 E0.01468
G1 X169.721 Y55.799 E0.01011
G1 X170.033 Y55.462 E0.00802
G1 X170.841 Y54.679 E0.01965
G1 X171.284 Y54.305 E0.01012
G1 X171.662 Y54.059 E0.00788
G1 X172.406 Y53.629 E0.01501
G1 X172.927 Y53.374 E0.01013
G1 X173.347 Y53.229 E0.00776
G1 X174.421 Y52.92 E0.01951
G1 X174.987 Y52.798 E0.01011
G1 X175.578 Y52.756 E0.01035
G1 X176.701 Y52.755 E0.01961
G1 X177.279 Y52.794 E0.01012
G1 X177.86 Y52.917 E0.01037
G1 X178.937 Y53.225 E0.01956
G1 X179.481 Y53.422 E0.0101
G1 X180.001 Y53.697 E0.01027
G1 X180.959 Y54.293 E0.0197
G1 X181.428 Y54.632 E0.0101
G1 X181.755 Y54.935 E0.00778
G1 X182.339 Y55.537 E0.01465
G1 X182.712 Y55.979 E0.0101
G1 X182.879 Y56.224 E0.00518
G1 X183.327 Y56.936 E0.01469
G1 X183.601 Y57.447 E0.01012
G1 X183.715 Y57.728 E0.0053
G1 X184.006 Y58.522 E0.01477
G1 X184.168 Y59.078 E0.01011
G1 X184.24 Y59.524 E0.00789
G1 X184.361 Y60.664 E0.02002
G1 X184.382 Y61.243 E0.01012
